X: 1161
T: Biddy from Limerick.
B:O'Neill's Music of Ireland
N:O'Neill's - 1161
Z:Transcribed by Stephen Foy (shf@access.digex.net)
Z:abc 1.6
M:9/8
R:slipjig
K:D
F2 D A2 F def|F2 D A2 F GFE|F2 D A2 F def|g2 f e2 d cBA:|
|:ABA d2 A def|ABA d2 A GFE|ABA d2 A def|g2 f e2 d cBA:|


